web/public/assets/view-analytics.svg

<svg fill="none" height="44" viewBox="0 0 44 44" width="44" xmlns="http://www.w3.org/2000/svg"><rect fill="#dfd9ff" height="44" rx="6" width="44"/><g clip-rule="evenodd" fill="#7126ff" fill-rule="evenodd"><path d="m14.8 21.4c.2387 0 .4676.0948.6364.2636s.2636.3977.2636.6364v7.2c0 .2387-.0948.4676-.2636.6364s-.3977.2636-.6364.2636-.4676-.0948-.6364-.2636-.2636-.3977-.2636-.6364v-7.2c0-.2387.0948-.4676.2636-.6364s.3977-.2636.6364-.2636z"/><path d="m29.2 21.4c.2387 0 .4677.0948.6364.2636.1688.1688.2636.3977.2636.6364v7.2c0 .2387-.0948.4676-.2636.6364-.1687.1688-.3977.2636-.6364.2636-.2386 0-.4676-.0948-.6363-.2636-.1688-.1688-.2637-.3977-.2637-.6364v-7.2c0-.2387.0949-.4676.2637-.6364.1687-.1688.3977-.2636.6363-.2636z"/><path d="m19.6 21.4c.2386 0 .4676.0948.6363.2636.1688.1688.2637.3977.2637.6364v7.2c0 .2387-.0949.4676-.2637.6364-.1687.1688-.3977.2636-.6363.2636-.2387 0-.4677-.0948-.6364-.2636-.1688-.1688-.2636-.3977-.2636-.6364v-7.2c0-.2387.0948-.4676.2636-.6364.1687-.1688.3977-.2636.6364-.2636z"/><path d="m24.4 13.6c.2387 0 .4676.0948.6364.2636s.2636.3977.2636.6364v15c0 .2387-.0948.4676-.2636.6364s-.3977.2636-.6364.2636-.4676-.0948-.6364-.2636-.2636-.3977-.2636-.6364v-15c0-.2387.0948-.4676.2636-.6364s.3977-.2636.6364-.2636z"/></g></svg>

<svg width="44" height="44" viewBox="0 0 44 44" fill="none" xmlns="http://www.w3.org/2000/svg">
<rect width="44" height="44" rx="6" fill="#DFD9FF"/>
<path fill-rule="evenodd" clip-rule="evenodd" d="M14.8 21.4C15.0387 21.4 15.2676 21.4948 15.4364 21.6636C15.6052 21.8324 15.7 22.0613 15.7 22.3V29.5C15.7 29.7387 15.6052 29.9676 15.4364 30.1364C15.2676 30.3052 15.0387 30.4 14.8 30.4C14.5613 30.4 14.3324 30.3052 14.1636 30.1364C13.9948 29.9676 13.9 29.7387 13.9 29.5V22.3C13.9 22.0613 13.9948 21.8324 14.1636 21.6636C14.3324 21.4948 14.5613 21.4 14.8 21.4Z" fill="#7126FF"/>
<path fill-rule="evenodd" clip-rule="evenodd" d="M29.2 21.4C29.4387 21.4 29.6677 21.4948 29.8364 21.6636C30.0052 21.8324 30.1 22.0613 30.1 22.3V29.5C30.1 29.7387 30.0052 29.9676 29.8364 30.1364C29.6677 30.3052 29.4387 30.4 29.2 30.4C28.9614 30.4 28.7324 30.3052 28.5637 30.1364C28.3949 29.9676 28.3 29.7387 28.3 29.5V22.3C28.3 22.0613 28.3949 21.8324 28.5637 21.6636C28.7324 21.4948 28.9614 21.4 29.2 21.4Z" fill="#7126FF"/>
<path fill-rule="evenodd" clip-rule="evenodd" d="M19.6 21.4C19.8386 21.4 20.0676 21.4948 20.2363 21.6636C20.4051 21.8324 20.5 22.0613 20.5 22.3V29.5C20.5 29.7387 20.4051 29.9676 20.2363 30.1364C20.0676 30.3052 19.8386 30.4 19.6 30.4C19.3613 30.4 19.1323 30.3052 18.9636 30.1364C18.7948 29.9676 18.7 29.7387 18.7 29.5V22.3C18.7 22.0613 18.7948 21.8324 18.9636 21.6636C19.1323 21.4948 19.3613 21.4 19.6 21.4Z" fill="#7126FF"/>
<path fill-rule="evenodd" clip-rule="evenodd" d="M24.4 13.6C24.6387 13.6 24.8676 13.6948 25.0364 13.8636C25.2052 14.0324 25.3 14.2613 25.3 14.5V29.5C25.3 29.7387 25.2052 29.9676 25.0364 30.1364C24.8676 30.3052 24.6387 30.4 24.4 30.4C24.1613 30.4 23.9324 30.3052 23.7636 30.1364C23.5948 29.9676 23.5 29.7387 23.5 29.5V14.5C23.5 14.2613 23.5948 14.0324 23.7636 13.8636C23.9324 13.6948 24.1613 13.6 24.4 13.6Z" fill="#7126FF"/>
</svg>
